X:1
T:Title
%%score { ( 1 3 ) | ( 2 4 ) }
L:1/8
M:6/8
K:Bb
V:1 treble nm="Grand Piano"
V:3 treble 
V:2 bass 
V:4 bass 
V:1
 z3 z2[Q:1/4=93] [GB] | [GB]2 [EG] [EG]2 [Ge] | e2 c c2 c | [EGB]2 [B,EG] [A,EF]2 [A,E] | %4
[M:5/8] [B,DF]-[B,DF]- [B,DF]3 |[M:1/8] [D_AB] |[M:3/4] [EGB]2 [B,EG] [B,EG]2 [Ge] | e2 c c2 c | %8
 B2 G [DF]2 [DG] |[M:5/8] E-E- E3 |[M:1/8] [Ge] |[M:3/4] e2 c c2 e | [Ge]2 [GB] [GB]2 [EB] | %13
 [Ec]d [Ae] [FBd]2 [EAc] |[M:5/8] [DB]-[DB]- [DB]3 |[M:1/8] [D_AB] | %16
[M:3/4] [EGB]2 [B,EG] [B,EG]2 [Ge] | e2 cc de | B2 G [DG]2 [DF] |[M:5/8] E-E- E3 |] %20
V:2
 z3 z2 [E,B,] | [E,B,]2 [E,B,] [E,B,]2 [E,_D] | [_A,C_A]2 [A,EA] [A,EA]2 [A,EA] | E,2 E, C,2 F, | %4
[M:5/8] B,,-B,,- B,,3 |[M:1/8] B,, |[M:3/4] E,2 E, E,2 [E,_D] | [_A,C_A]2 [A,EA] [A,EA]2 [A,EA] | %8
 [B,G]2[K:bass] [B,E] [B,,_A,]2 [B,,B,] |[M:5/8] [E,G,]-[E,G,]- [E,G,]3 |[M:1/8] [E,B,] | %11
[M:3/4][K:treble] [_A,C_A]2 [A,EA] [A,EA]2 [A,CA] | [E,B,]2 [E,E] [E,E]2 G, | z D [F,C] F,2 F, | %14
[M:5/8] B,-B,- B,3 |[M:1/8] B, |[M:3/4] E,2 E, E,2 [E,_D] | [_A,C_A]2 [A,EA]E D[A,C^F] | %18
 [B,EG]2[K:bass] [B,E] [B,,B,]2 [B,,_A,] |[M:5/8] [E,G,]-[E,G,]- [E,G,]3 |] %20
V:3
 x6 | x6 | x6 | x6 |[M:5/8] x5 |[M:1/8] x |[M:3/4] x6 | x6 | x6 |[M:5/8] x5 |[M:1/8] x | %11
[M:3/4] x6 | x6 | A2 z2 z2 |[M:5/8] x5 |[M:1/8] x |[M:3/4] x6 | x6 | x6 |[M:5/8] x5 |] %20
V:4
 x6 | x6 | x6 | x6 |[M:5/8] x5 |[M:1/8] x |[M:3/4] x6 | x6 | x2[K:bass] x4 |[M:5/8] x5 |[M:1/8] x | %11
[M:3/4][K:treble] x6 | x6 | F,2 z2 z2 |[M:5/8] x5 |[M:1/8] x |[M:3/4] x6 | z2 z .[_A,^F]3 | %18
 x2[K:bass] x4 |[M:5/8] x5 |] %20

